X:1
T:Title
%%score [ 1 2 ] { ( 3 5 7 ) | ( 4 6 8 ) }
L:1/8
Q:1/4=60
M:2/4
K:Eb
V:1 treble nm="Soprano or Tenor"
V:2 treble nm="Alto  or Bass"
V:3 treble nm="Organ or Piano"
V:5 treble 
V:7 treble 
V:4 bass 
V:6 bass 
V:8 bass 
V:1
"^Andante" z4 | z4 | z4 | z4 |"^Dolce" Be de | dc Bc | B>A G2 | z4 | Be de | dc Bc | B>A G2 | z4 | %12
w: ||||Ma- * ri- a,|Ma- * ter _|gra- ti- ae||Dul- * cis _|pa- * rens cle-|men- ti- ae||
!p! B/c/ _d2 c | c/=d/ e2 d |!>(! d/e/!>)! (f2 e) | d>d d2 |!<(! d/e/ (f2 e)!<)! |!mf! d2 dd | %18
w: Ma- * ri- a,|Ma- * ri- a,|Ma- * ter _|gra- ti- ae,|Dul- * cis, _|Dul- cis pa-|
!p!!>(! d/c/!>)!B F>E | D2- D z |!p! _d2 c>c | _d2 c>c |!<(! (_d3!<)! e) |!>(! e4!>)! | z4 | z4 | %26
w: rens _ cle- men- ti-|足ae, _|Tu nos ab|hos- te pro-|te- *|ge,|||
 z4 | z4 |!pp! B2 A>A | B2 A2 | B2- B>B |[Q:1/4=60]"^Poco rit."[Q:1/4=60]"^Poco rit."!<(! B4!<)! | %32
w: ||Et mor- tis|ho- ra,|Sus- * ci-|pe|
!f![Q:1/4=60]"^A Tempo"[Q:1/4=60]"^A Tempo" Be de | dc Bc | B>A G2 | z4 |!f! Bg fg | fe de | %38
w: Je- su, Je- su|ti- * bi sit|glo- ri- a||Qui _ na- *|tus _ es de|
 d>c B2 | z4 |!p! c/d/ e2 d |"^Cresc." d/e/ f2 e |!<(! e/f/ _g2 f!<)! | e>e!>(! e2!>)! |!p! ed Bc | %45
w: Vir- gi- ne||Cum * pa- tre,|cum * pa- tre|et * al- mo|Spi- ri- tu,|In _ sem- pi-|
 ed Bc |"^Cresc." ed ef | g>g g2 |!f! ag fe | ed ce | (e2 d>)e | e4 | z4 | e2 e2- | e z z2 | z4 | %56
w: ter- * nam, _|sem- pi- ter- nam|sae- cu- la|Sem- * pi- *|足ter- * nam _|sae- * cu-|la.||A- men,|_||
!pp! B4 | B4- | B4- | !fermata!B4 |] %60
w: A-|men.|_||
V:2
 z4 | z4 | z4 | z4 |"^Dolce" GE FE | BA GE | G>F E2 | z4 | GE FE | BA GE | G>F E2 | z4 | z4 | %13
w: ||||Ma- * ri- a,|Ma- * ter _|gra- ti- ae||Dul- * cis _|pa- * rens cle-|men- ti- ae|||
!<(! z4!<)! | z4 |!p! DB =AG |!<(! FG =A2!<)! |!mf! DB =AG |!p!!>(! F/E/D!>)! D>C | B,2- B, z | %20
w: ||Ma- * ter _|gra- ti- ae,|Dul- * cis pa-|rens _ cle- men- ti-|足ae, _|
 z4 | z4 | z4 | z4 |!p! _c2 B>B | _c2 B>B |!<(! _c3 _d!<)! |!>(! _d4!>)! |!pp! B2 A>A | B2 A2 | %30
w: ||||Tu nos ab|hos- te pro-|te- *|ge,|Et mor- tis|ho- ra,|
 B2- B>B |!<(! B4!<)! |!f! GE FE | BA GE | G>F E2 | z4 |!f! Gc dB | c=A BG | B>=A G2 | z4 | %40
w: Sus- * ci-|pe|Je- su, Je- su|ti- * bi sit|glo- ri- a||Qui _ na- *|tus _ es de|Vir- gi- ne||
!p! FG =AB |"^Cresc." G=A =Bc |!<(! _A_B c_d!<)! | _dc!>(! BA!>)! |!p! GF DE | GF DE | %46
w: Cum _ pa- tre,|cum _ pa- tre|et * al- mo|Spi- ri- tu, _|In _ sem- pi-|ter- * nam, _|
"^Cresc." GF Fc | =B>B _B2 |!f! A2 AG | GF EA | (G2 F>)E | E4 | z4 | E2 E2- | E z z2 | z4 | %56
w: sem- pi- ter- nam|sae- cu- la|Sem- pi- *|足ter- * nam _|sae- * cu-|la.||A- men,|_||
!pp! B,4 | B,4- | B,4- | !fermata!B,4 |] %60
w: A-|men.|_||
V:3
!p!"^Andante" ([GB][Ee][Fd][AB-] | [GB][F_d][Ac][FA-] | [EA][Ac][GB][FA] | [EG]2 [DF]2) | %4
 ([GB][Ee][Fd][Ee] | [Bd][Ac][GB][Ec] | [GB]>[FA] G/B/e/g/ | b>g e>c) | ([GB][Ee] [Fd][Ee] | %9
 [Bd][Ac][GB][Ec] | [GB]>[FA] G/ B/e/g/ | b>g e>c) | (B/c/ _d2 c-) | (c/=d/ e2 d-) | (d/e/ f2 e) | %15
 d4- |!<(! (d/e/ f2!<)! e) | d4- |!>(! ([Fd]/[Ec]/[DB]!>)! [DF]>[CE] | D)(FBc) |"^Dolce" (_d2 c2 | %21
 _d2 c2 |!<(! _d3!<)! e) |!>(! [Ae]2!>)! z2 | (_c2 B2 | _c2 B2 |!<(! _c3 _d)!<)! | %27
!>(! (_dB_G!>)!_D | B2 A2 | B2 A2 | B4-) | B4- | ([GB][Ee][Fd][E-e] | d c Bc | %34
 [GB]>[FA] G/) (B/e/g/ | b>g e>c) | ([GB][cg][df][Bg] | [cf][=Ae][Bd][Ge] | %38
 [Bd]>[=Ac] B/)(d/g/=a/ |!>(! b>g f>!>)!d) | (c/d/ e2 d-) | (d/e/ f2 e-) | (e/f/ _g2 f) | e4 | %44
 ([Ge][Fd]B[Ec] | [Ge][Fd]B[Ec] | edef | g4) | (agfe | [Ge][Fd][Ec][Ae]) | ([Ge]2 [Fd]2 | [E-e]4) | %52
 (B/c/ _d2 c | B4) | E/F/ G2 F | (G3 F | G3 F) | [G,B,EG]4- | [G,B,EG]4- | !fermata![G,B,EG]4 |] %60
V:4
 (E,G,,B,,D, | E,B,E_D | C[F,=D][G,E][A,C] | B,4) |"^Sempre"!p! (E,G,B,C | G,A,E,C, | %6
 G,,B,, [E,E][CG-] | GD [A,C][B,D] | [E,E]) (G,,B,,C, | G,A,E,C, | D2 [E,E])[CG-] | GEB,C | %12
 _DC/D/ E2- | E=D/E/ F2 | ([B,D]2 C2) | ([G,D]2 [=A,C]2 | [B,D]2 C2) | DG, =A,B, | F,G, =A,2 | %19
 [B,,F,]2 z2 | ([B,_D]2 [=A,C]2 | [B,_D]2 [=A,C]2 | [B,_D-]4) | (DCB,A,) | ([A,_C]2 [G,B,]2 | %25
 [A,_C]2 [G,B,]2) | (([A,_C]4 | [_G,B,]2)) z2 |!pp! _G,2 F,2 | _G,2 F,2 | _G,2 E,=E, | %31
"^Cresc." F,_G,=G,A, |!mf! B,3 G, | x2 G,2 | D2 E2 | (G,2 [A,C][B,D]) | E2 D2 | x4 | ^F,D- D2 | %39
 C^C D2 |!p! ED/E/ F2- |"^Cresc." FE/F/ G2 |!<(! _GF/G/ A2!<)! | (A2!>(! _DC!>)! | B,2) DC | %45
 B,2 DC |"^Cresc." B,2 C2 | [G,D]2 [E,-_D]2 |!f! C4 | =B,2 C2 | [B,,-B,]2 [B,,A,]2 | %51
!>(! [E,G,][F,A,][G,B,][A,C]!>)! |!p! _DC/D/ E2- | E3 A, | [_D,B,]2 [C,A,]2 |!pp! (G,2 A,2 | %56
 G,2 A,2) | [E,,B,,E,]4- | [E,,B,,E,]4- | !fermata![E,,B,,E,]4 |] %60
V:5
 x4 | x4 | x4 | x4 | x4 | x4 | D2 Ge | dB cA | x4 | x4 | x4 | dBGE- | EFGA | FG=AB | G2 =A2 | %15
 B2 =AG | FG =A2 | B2 =AG | x4 | B,2 z2 | F_G=EF- | F_G=EF- | F_GA=G | x4 | E_F=DE- | E_F=DE- | %26
 E_F_G=F | _G2 z2 | B,C=DC | B,C=DC | B,_C=C_D | =DE=EF | x4 | x4 | x4 | dBcA | x4 | x4 | x2 B2- | %39
 B4 | FG=AB | G=A=Bc | _A_Bc_d | _dc!>(!BA!>)! | x4 | x4 | G F2 c | =B2 _B2 | A3 G | x4 | x4 | x4 | %52
 EFGA- | A2 GF | E4- | E4 | D4 | x4 | x4 | x4 |] %60
V:6
 x4 | x4 | x4 | x4 | x4 | x4 | x4 | G,2 x2 | x4 | x4 | x4 | G,4- | G,A,B,C | =A,B,CD | x4 | x4 | %16
 x4 | G,2 F,E, | F,4 | x4 | x4 | x4 | x4 | A,2 z2 | x4 | x4 | x4 | x4 | (_G,,A,,B,,A,, | %29
 _G,,A,,B,,A,, | _G,,A,, B,,2-) | B,,4 | (E,G,,B,,C, | [G,,B,][A,,A,]E,C, | G,B, [E,E])[CG-] | %35
 GD x2 | (EE,B,G, | =A,[F,C][G,B,][C,C] | D,2 G,)=F, | (=E,2 F,G,) | (=A,B,CD) | (=B,CDE) | %42
 (C_DEF) | A,4- | A,4- | A,4- | A,4 | x4 | (E,2 F,2 | G,2 A,F,) | x4 | x4 | G,A,B,C | E,4 | x4 | %55
 _C,4 | B,,4 | x4 | x4 | x4 |] %60
V:7
 x4 | x4 | x4 | x4 | x4 | x4 | x4 | x4 | x4 | x4 | x2 Ge | x4 | x4 | x4 | x4 | x4 | x4 | x4 | x4 | %19
 x4 | x4 | x4 | x4 | x4 | x4 | x4 | x4 | x4 | x4 | x4 | x4 | x4 | x4 | E4 | x2 Ge | x4 | x4 | x4 | %38
 x4 | x4 | x4 | x4 | x4 | x4 | x4 | x4 | x4 | x4 | x4 | x4 | x4 | x4 | x4 | x4 | x4 | x4 | x4 | %57
 x4 | x4 | x4 |] %60
V:8
 x4 | x4 | x4 | x4 | x4 | x4 | x4 | x4 | x4 | x4 | G,B, x2 | x4 | x4 | x4 | x4 | x4 | x4 | x4 | %18
 x4 | x4 | x4 | x4 | x4 | x4 | x4 | x4 | x4 | x4 | x4 | x4 | x4 | x4 | x4 | x4 | x4 | x4 | x4 | %37
 x4 | x4 | x4 | x4 | x4 | x4 | x4 | x4 | x4 | x4 | x4 | x4 | x4 | x4 | x4 | x4 | x4 | x4 | x4 | %56
 x4 | x4 | x4 | x4 |] %60

